images/Laboratory.svg

<svg width="78" height="78" viewBox="0 0 78 78" fill="none" xmlns="http://www.w3.org/2000/svg">
<path d="M39.6123 5.71289H26.2061C24.9439 5.71289 23.9209 4.68993 23.9209 3.42773C23.9209 2.16554 24.9439 1.14258 26.2061 1.14258H39.6123C40.8745 1.14258 41.8975 2.16554 41.8975 3.42773C41.8975 4.68993 40.8745 5.71289 39.6123 5.71289Z" fill="#716680"/>
<path d="M27.5771 51.6445H38.2412V56.2148H27.5771V51.6445Z" fill="#716680"/>
<path d="M26.8154 5.71289H39.0029V12.0352H26.8154V5.71289Z" fill="#D6CFC4"/>
<path d="M34.4326 5.71289H39.0029V12.0352H34.4326V5.71289Z" fill="#C4BEB4"/>
<path d="M68.8612 30.6223V63.2227H59.7194V30.927C59.7194 27.8974 57.2634 25.442 54.2338 25.442H45.0956V16.3008H54.5385C62.4485 16.3008 68.8612 22.7129 68.8612 30.6223Z" fill="#716680"/>
<path d="M54.5385 16.3008H49.9681C57.8781 16.3008 64.2908 22.7129 64.2908 30.6223V63.2227H68.8611V30.6223C68.8611 22.7129 62.4484 16.3008 54.5385 16.3008Z" fill="#635870"/>
<path d="M55.834 76.8574H22.166C17.1601 76.8574 13.1016 72.7989 13.1016 67.793H64.8984C64.8984 72.7989 60.8399 76.8574 55.834 76.8574Z" fill="#716680"/>
<path d="M60.3281 67.793C60.3281 72.7989 56.2696 76.8574 51.2637 76.8574H55.834C60.8399 76.8574 64.8984 72.7989 64.8984 67.793H60.3281Z" fill="#635870"/>
<path d="M42.0498 51.6445H23.7686C22.0856 51.6445 20.7217 50.2806 20.7217 48.5977V15.082C20.7217 13.3991 22.0856 12.0352 23.7686 12.0352H42.0498C43.7327 12.0352 45.0967 13.3991 45.0967 15.082V48.5977C45.0967 50.2806 43.7327 51.6445 42.0498 51.6445Z" fill="#E8E1D5"/>
<path d="M42.0499 12.0352H37.4784C39.1607 12.0352 40.5253 13.3991 40.5253 15.082V48.5977C40.5253 50.2806 39.1607 51.6445 37.4784 51.6445H42.0499C43.7328 51.6445 45.0968 50.2806 45.0968 48.5977V15.082C45.0968 13.3991 43.7328 12.0352 42.0499 12.0352Z" fill="#D6CFC4"/>
<path d="M51.1893 20.8003C51.1893 24.1655 48.4608 26.894 45.0956 26.894C41.7297 26.894 39.0018 24.1655 39.0018 20.8003C39.0018 17.435 41.7297 14.7065 45.0956 14.7065C48.4608 14.7065 51.1893 17.435 51.1893 20.8003Z" fill="#FFBD54"/>
<path d="M47.3807 20.8003C47.3807 22.0625 46.3572 23.0854 45.0956 23.0854C43.8334 23.0854 42.8104 22.0625 42.8104 20.8003C42.8104 19.5381 43.8334 18.5151 45.0956 18.5151C46.3572 18.5151 47.3807 19.5381 47.3807 20.8003Z" fill="#FF573D"/>
<path d="M74.5723 67.793H3.42773C2.16554 67.793 1.14258 66.77 1.14258 65.5078C1.14258 64.2456 2.16554 63.2227 3.42773 63.2227H74.5723C75.8345 63.2227 76.8574 64.2456 76.8574 65.5078C76.8574 66.77 75.8345 67.793 74.5723 67.793Z" fill="#E8E1D5"/>
<path d="M74.5723 63.2227H70.002C71.2641 63.2227 72.2871 64.2456 72.2871 65.5078C72.2871 66.77 71.2641 67.793 70.002 67.793H74.5723C75.8345 67.793 76.8574 66.77 76.8574 65.5078C76.8574 64.2456 75.8345 63.2227 74.5723 63.2227Z" fill="#D6CFC4"/>
<path d="M45.0956 24.228C46.9856 24.228 48.5233 22.6903 48.5233 20.8003C48.5233 18.9103 46.985 17.3726 45.0956 17.3726C43.2056 17.3726 41.6678 18.9103 41.6678 20.8003C41.6678 22.6903 43.205 24.228 45.0956 24.228ZM45.0956 19.6577C45.7252 19.6577 46.2382 20.1701 46.2382 20.8003C46.2382 21.4305 45.7252 21.9429 45.0956 21.9429C44.4654 21.9429 43.953 21.4305 43.953 20.8003C43.953 20.1701 44.4654 19.6577 45.0956 19.6577Z" fill="black"/>
<path d="M74.5723 62.0801H70.0037V61.4963C70.0037 60.8649 69.492 60.3537 68.8612 60.3537C68.2298 60.3537 67.7186 60.8649 67.7186 61.4963V62.0801H60.8613V30.9276C60.8613 27.2725 57.8882 24.2988 54.2344 24.2988H51.4267C52.0028 23.261 52.3313 22.0684 52.3313 20.8003C52.3313 19.5893 52.0307 18.4473 51.5029 17.4434H54.5391C61.8063 17.4434 67.7186 23.3556 67.7186 30.6229V56.6463C67.7186 57.2777 68.2298 57.7889 68.8612 57.7889C69.492 57.7889 70.0037 57.2777 70.0037 56.6463V30.6229C70.0037 22.0952 63.0661 15.1582 54.5391 15.1582H49.6188C48.5953 14.3358 47.3438 13.7865 45.9757 13.6193C45.3788 12.0137 43.8298 10.8926 42.0499 10.8926H40.1456V6.81381C41.7832 6.55673 43.0401 5.13625 43.0401 3.42773C43.0401 1.53772 41.5024 0 39.6124 0H26.2061C24.3161 0 22.7784 1.53772 22.7784 3.42773C22.7784 5.13625 24.0352 6.55673 25.6729 6.81381V10.8926H23.7686C21.4585 10.8926 19.5791 12.7719 19.5791 15.082V19.4875C19.5791 20.1183 20.0909 20.6301 20.7217 20.6301C21.3525 20.6301 21.8643 20.1183 21.8643 19.4875V15.082C21.8643 14.0317 22.7189 13.1777 23.7686 13.1777H42.0499C42.5848 13.1777 43.0728 13.4003 43.4209 13.7615C40.236 14.5191 37.8592 17.3862 37.8592 20.8003C37.8592 24.4024 40.5044 27.3969 43.9541 27.9456V48.5977C43.9541 49.648 43.1002 50.502 42.0499 50.502H23.7686C22.7189 50.502 21.8643 49.648 21.8643 48.5977V24.356C21.8643 23.7246 21.3525 23.2134 20.7217 23.2134C20.0909 23.2134 19.5791 23.7246 19.5791 24.356V48.5977C19.5791 50.9078 21.4585 52.7871 23.7686 52.7871H26.4346V56.2148C26.4346 56.8462 26.9464 57.3574 27.5772 57.3574H38.2413C38.8721 57.3574 39.3838 56.8462 39.3838 56.2148V52.7871H42.0499C44.36 52.7871 46.2393 50.9078 46.2393 48.5977V27.9456C47.4259 27.7557 48.5179 27.2779 49.4385 26.584H54.2344C56.6284 26.584 58.5762 28.5323 58.5762 30.9276V62.0801H3.42773C1.53772 62.0801 0 63.6178 0 65.5078C0 67.3978 1.53772 68.9355 3.42773 68.9355H12.0244C12.5945 74.0278 16.9244 78 22.166 78H55.834C61.0756 78 65.4055 74.0278 65.9756 68.9355H74.5723C76.4623 68.9355 78 67.3978 78 65.5078C78 63.6178 76.4623 62.0801 74.5723 62.0801ZM25.0635 3.42773C25.0635 2.79753 25.5759 2.28516 26.2061 2.28516H39.6124C40.2426 2.28516 40.7549 2.79753 40.7549 3.42773C40.7549 4.05794 40.2426 4.57031 39.6124 4.57031H26.2061C25.5759 4.57031 25.0635 4.05794 25.0635 3.42773ZM27.9581 10.8926V6.85547H37.8604V10.8926H27.9581ZM37.0987 55.0723H28.7198V52.7871H37.0987V55.0723ZM40.1444 20.8003C40.1444 18.07 42.3652 15.8491 45.0955 15.8491C47.8252 15.8491 50.0467 18.07 50.0467 20.8003C50.0467 23.527 47.8312 25.7449 45.1062 25.7509C45.1027 25.7509 45.0997 25.7509 45.0967 25.7509C45.0932 25.7509 45.0902 25.7509 45.0866 25.7509C42.3605 25.7467 40.1444 23.5276 40.1444 20.8003ZM74.5723 66.6504H20.7188C20.088 66.6504 19.5762 67.1616 19.5762 67.793C19.5762 68.4244 20.088 68.9355 20.7188 68.9355H63.6725C63.1167 72.7644 59.814 75.7148 55.834 75.7148H22.166C18.186 75.7148 14.8833 72.7644 14.3275 68.9355H15.8687C16.5001 68.9355 17.0113 68.4244 17.0113 67.793C17.0113 67.1616 16.5001 66.6504 15.8687 66.6504H3.42773C2.79753 66.6504 2.28516 66.138 2.28516 65.5078C2.28516 64.8776 2.79753 64.3652 3.42773 64.3652H74.5723C75.2025 64.3652 75.7148 64.8776 75.7148 65.5078C75.7148 66.138 75.2025 66.6504 74.5723 66.6504Z" fill="black"/>
<path d="M24.6826 48.3691H41.1357C41.7665 48.3691 42.2783 47.858 42.2783 47.2266C42.2783 46.5952 41.7665 46.084 41.1357 46.084H24.6826C24.0518 46.084 23.54 46.5952 23.54 47.2266C23.54 47.858 24.0518 48.3691 24.6826 48.3691Z" fill="black"/>
<path d="M24.6826 44.1035H41.1357C41.7665 44.1035 42.2783 43.5923 42.2783 42.9609C42.2783 42.3295 41.7665 41.8184 41.1357 41.8184H24.6826C24.0518 41.8184 23.54 42.3295 23.54 42.9609C23.54 43.5923 24.0518 44.1035 24.6826 44.1035Z" fill="black"/>
</svg>

<svg width="78" height="78" fill="none" xmlns="http://www.w3.org/2000/svg"><path d="M39.612 5.713H26.206a2.285 2.285 0 110-4.57h13.406a2.285 2.285 0 110 4.57zM27.577 51.645h10.664v4.57H27.577v-4.57z" fill="#716680"/><path d="M26.815 5.713h12.188v6.322H26.815V5.713z" fill="#D6CFC4"/><path d="M34.433 5.713h4.57v6.322h-4.57V5.713z" fill="#C4BEB4"/><path d="M68.861 30.622v32.6H59.72V30.928a5.485 5.485 0 00-5.485-5.485h-9.138v-9.141h9.443c7.91 0 14.322 6.412 14.322 14.321z" fill="#716680"/><path d="M54.538 16.3h-4.57c7.91 0 14.323 6.413 14.323 14.322v32.6h4.57v-32.6c0-7.91-6.413-14.321-14.323-14.321z" fill="#635870"/><path d="M55.834 76.857H22.166a9.065 9.065 0 01-9.064-9.064h51.796a9.065 9.065 0 01-9.064 9.064z" fill="#716680"/><path d="M60.328 67.793a9.065 9.065 0 01-9.064 9.064h4.57a9.065 9.065 0 009.064-9.064h-4.57z" fill="#635870"/><path d="M42.05 51.645H23.769a3.047 3.047 0 01-3.047-3.047V15.082a3.047 3.047 0 013.047-3.047h18.28a3.047 3.047 0 013.048 3.047v33.516a3.047 3.047 0 01-3.047 3.047z" fill="#E8E1D5"/><path d="M42.05 12.035h-4.572a3.047 3.047 0 013.047 3.047v33.516a3.047 3.047 0 01-3.047 3.047h4.572a3.047 3.047 0 003.047-3.047V15.082a3.047 3.047 0 00-3.047-3.047z" fill="#D6CFC4"/><path d="M51.19 20.8A6.094 6.094 0 1139 20.8a6.094 6.094 0 0112.188 0z" fill="#FFBD54"/><path d="M47.38 20.8a2.285 2.285 0 11-4.57 0 2.285 2.285 0 014.57 0z" fill="#FF573D"/><path d="M74.572 67.793H3.428a2.285 2.285 0 110-4.57h71.144a2.285 2.285 0 110 4.57z" fill="#E8E1D5"/><path d="M74.572 63.223h-4.57a2.285 2.285 0 110 4.57h4.57a2.285 2.285 0 100-4.57z" fill="#D6CFC4"/><path d="M45.096 24.228a3.432 3.432 0 003.427-3.428 3.432 3.432 0 00-3.427-3.427 3.432 3.432 0 00-3.428 3.427 3.431 3.431 0 003.428 3.428zm0-4.57c.63 0 1.142.512 1.142 1.142 0 .63-.513 1.143-1.142 1.143a1.144 1.144 0 010-2.285z" fill="#000"/><path d="M74.572 62.08h-4.568v-.584a1.142 1.142 0 10-2.285 0v.584H60.86V30.928a6.636 6.636 0 00-6.627-6.63h-2.807a7.186 7.186 0 00.904-3.498c0-1.21-.3-2.353-.828-3.357h3.036c7.267 0 13.18 5.913 13.18 13.18v26.023a1.142 1.142 0 102.285 0V30.623c0-8.528-6.938-15.465-15.465-15.465h-4.92a7.205 7.205 0 00-3.643-1.539 4.194 4.194 0 00-3.926-2.726h-1.904v-4.08a3.433 3.433 0 002.894-3.385A3.432 3.432 0 0039.612 0H26.206a3.432 3.432 0 00-3.428 3.428 3.433 3.433 0 002.895 3.386v4.079h-1.904c-2.31 0-4.19 1.879-4.19 4.189v4.405a1.143 1.143 0 002.285 0v-4.405c0-1.05.855-1.904 1.905-1.904h18.28a1.9 1.9 0 011.372.583c-3.185.758-5.562 3.625-5.562 7.04 0 3.601 2.645 6.596 6.095 7.145v20.652c0 1.05-.854 1.904-1.904 1.904H23.769a1.907 1.907 0 01-1.905-1.904V24.356a1.143 1.143 0 10-2.285 0v24.242c0 2.31 1.88 4.19 4.19 4.19h2.666v3.427c0 .631.511 1.142 1.142 1.142h10.664c.631 0 1.143-.51 1.143-1.142v-3.428h2.666c2.31 0 4.19-1.88 4.19-4.19V27.947a7.201 7.201 0 003.198-1.362h4.796a4.348 4.348 0 014.342 4.344V62.08H3.428A3.432 3.432 0 000 65.508a3.432 3.432 0 003.428 3.428h8.596c.57 5.092 4.9 9.064 10.142 9.064h33.668c5.242 0 9.572-3.972 10.142-9.064h8.596A3.432 3.432 0 0078 65.508a3.432 3.432 0 00-3.428-3.428zM25.064 3.428c0-.63.512-1.143 1.142-1.143h13.406a1.144 1.144 0 010 2.285H26.206c-.63 0-1.142-.512-1.142-1.142zm2.894 7.465V6.855h9.902v4.038h-9.902zm9.14 44.18H28.72v-2.286h8.379v2.285zM40.145 20.8c0-2.73 2.221-4.95 4.952-4.95 2.73 0 4.95 2.22 4.95 4.95a4.956 4.956 0 01-4.94 4.95h-.02a4.956 4.956 0 01-4.942-4.95zm34.428 45.85H20.72a1.143 1.143 0 100 2.285h42.953c-.555 3.83-3.858 6.78-7.838 6.78H22.166c-3.98 0-7.283-2.95-7.838-6.78h1.54a1.142 1.142 0 100-2.285H3.429a1.144 1.144 0 010-2.285h71.144a1.144 1.144 0 010 2.285z" fill="#000"/><path d="M24.683 48.37h16.453a1.142 1.142 0 100-2.286H24.683a1.143 1.143 0 100 2.285zM24.683 44.103h16.453a1.143 1.143 0 100-2.285H24.683a1.142 1.142 0 100 2.285z" fill="#000"/></svg>
